X:1
T:Chula Vista, 87.87.77
T:Chula Vista, 87.87.77
T:William H. A. Hall, 1883
T:Public Domain Courtesy of the Cyber Hymnal™
C:William H. A. Hall, 1883
Z:Public Domain
Z:Courtesy of the Cyber Hymnal™
%%score ( 1 2 ) ( 3 4 )
L:1/8
Q:1/4=108
M:4/4
K:Bb
V:1 treble 
V:2 treble 
V:3 bass 
V:4 bass 
V:1
 [DF]3 [DB] [Fd]2 [DB]2 | [EG]2 [EB]2 [DF]2 D2 | [DF]3 [DB] [Fd]2 [DB]2 | [=EB]2 (AB) [_Ec]4 | %4
 [Fd]2 (^cd) [Ae]2 (de) | [Bf]2 [Fd]2 [GB]2 [Ge]2 | [Fd]3 [DB] [DF]2 [DB]2 | [Ec]2 [Ef]2 [DB]4 | %8
 D3 D G2 (^FG) | [DB]2 [DB]2 [^Fd]4 | [GB]3 [EG] [EG]2 [Ec]2 | [EA]2 [Ef]2 !fermata![DB]4 |] %12
V:2
 x8 | x6 D2 | x8 | x2 _E2 x4 | x2 F2 x A2 x | x8 | x8 | x8 | D3 D G2 ^FG | x8 | x8 | x8 |] %12
V:3
 [B,,B,]3 [B,,F,] [B,,B,]2 [B,,B,]2 | [E,B,]2 [E,G,]2 [B,,B,]2 [B,,F,]2 | %2
 [B,,B,]3 [B,,F,] [B,,B,]2 [B,,B,]2 | [C,G,]2 (^F,G,) [F,A,]4 | [F,B,]2 (A,B,) [F,C]2 (=B,C) | %5
 [F,D]2 [F,B,]2 [E,E]2 [E,B,]2 | [B,,B,]3 [B,,F,] [B,,B,]2 [B,,B,]2 | [F,A,]2 [F,C]2 [B,,B,]4 | %8
 D,3 D, G,2 ^F,G, | [G,B,]2 [G,B,]2 [D,A,]4 | [E,B,]3 [E,B,] [E,B,]2 [E,G,]2 | %11
 [F,C]2 [F,A,]2 !fermata![B,,F,]4 |] %12
V:4
 x8 | x8 | x8 | x2 C,2 x4 | x2 F,2 x F,2 x | x8 | x8 | x8 | D,3 D, G,2 (^F,G,) | x8 | x8 | x8 |] %12

